2019/supporters/samsung-internet.svg

﻿<?xml version="1.0" encoding="utf-8"?>
<!DOCTYPE svg PUBLIC "-//W3C//DTD SVG 1.1//EN" "http://www.w3.org/Graphics/SVG/1.1/DTD/svg11.dtd">
<svg xmlns="http://www.w3.org/2000/svg" xmlns:xlink="http://www.w3.org/1999/xlink" version="1.1" baseProfile="full" width="354.812" height="89.605" viewBox="0 0 354.81 89.61" enable-background="new 0 0 354.81 89.61" xml:space="preserve">
	<path fill="#FFFFFF" fill-opacity="1" fill-rule="evenodd" stroke-width="0.2" stroke-linejoin="round" d="M 227.504,19.6597L 227.228,3.69043L 232.267,3.69043L 232.267,23.83L 225.022,23.83L 219.994,7.3042L 219.881,7.3042L 220.163,23.83L 215.163,23.83L 215.163,3.69043L 222.714,3.69043L 227.394,19.6597L 227.504,19.6597 Z M 135.944,5.5686L 133.159,24.0387L 127.661,24.0387L 131.431,3.69165L 140.488,3.69165L 144.237,24.0387L 138.773,24.0387L 136.058,5.5686L 135.944,5.5686 Z M 159.663,19.2489L 162.178,3.69092L 170.473,3.69092L 170.925,24.038L 165.832,24.038L 165.7,5.74036L 165.59,5.74536L 162.191,24.038L 157.032,24.038L 153.63,5.74036L 153.516,5.74036L 153.387,24.038L 148.3,24.038L 148.751,3.69092L 157.048,3.69092L 159.552,19.2489L 159.663,19.2489 Z M 119.097,18.2938C 119.297,18.7853 119.231,19.4193 119.137,19.8031C 118.971,20.4672 118.513,21.1598 117.157,21.1598C 115.886,21.1598 115.11,20.4321 115.11,19.3242L 115.106,17.3485L 109.649,17.3485L 109.649,18.9229C 109.649,23.4595 113.222,24.8248 117.042,24.8248C 120.729,24.8248 123.751,23.5745 124.238,20.1808C 124.487,18.4202 124.303,17.2672 124.218,16.8372C 123.355,12.5743 115.635,11.3126 115.058,8.92322C 114.961,8.50671 114.983,8.0929 115.035,7.86023C 115.182,7.2063 115.624,6.49353 116.895,6.49353C 118.089,6.49353 118.786,7.22876 118.786,8.33545L 118.786,9.59094L 123.865,9.59094L 123.865,8.16785C 123.865,3.73376 119.884,3.04102 117.003,3.04102C 113.385,3.04102 110.433,4.24023 109.889,7.5614C 109.743,8.45801 109.722,9.27197 109.94,10.2998C 110.821,14.4575 118.049,15.663 119.097,18.2938 Z M 185.254,18.2537C 185.444,18.7412 185.387,19.3665 185.293,19.7491C 185.129,20.4193 184.672,21.0896 183.329,21.0896C 182.066,21.0896 181.304,20.3756 181.304,19.2739L 181.302,17.317L 175.897,17.317L 175.894,18.8726C 175.894,23.3691 179.432,24.7146 183.22,24.7146C 186.864,24.7146 189.86,23.4829 190.337,20.1205C 190.585,18.3799 190.402,17.2383 190.317,16.8068C 189.464,12.5905 181.819,11.3387 181.255,8.97412C 181.155,8.56653 181.183,8.15637 181.229,7.92883C 181.374,7.27856 181.809,6.57202 183.07,6.57202C 184.251,6.57202 184.942,7.2998 184.942,8.3877L 184.942,9.6344L 189.97,9.6344L 189.97,8.2301C 189.97,3.84119 186.026,3.1571 183.18,3.1571C 179.596,3.1571 176.67,4.32874 176.136,7.625C 175.987,8.51526 175.965,9.32178 176.181,10.3372C 177.056,14.4573 184.214,15.6515 185.254,18.2537 Z M 202.332,20.9797C 203.745,20.9797 204.184,20.0194 204.285,19.5131C 204.329,19.293 204.336,18.9978 204.334,18.7352L 204.334,3.68762L 209.493,3.68762L 209.493,18.2701C 209.497,18.6465 209.458,19.413 209.437,19.6144C 209.082,23.4082 206.074,24.6348 202.332,24.6348C 198.592,24.6348 195.586,23.4082 195.234,19.6144C 195.218,19.413 195.177,18.6465 195.186,18.2701L 195.186,3.68762L 200.33,3.68762L 200.33,18.7352C 200.326,18.9978 200.336,19.293 200.379,19.5131C 200.481,20.0194 200.92,20.9797 202.332,20.9797 Z M 244.783,20.7722C 246.254,20.7722 246.769,19.8444 246.864,19.3018C 246.902,19.0704 246.917,18.7853 246.91,18.5265L 246.91,15.5767L 244.827,15.5767L 244.827,12.6007L 252.027,12.6007L 252.027,18.0601C 252.024,18.4414 252.019,18.724 251.963,19.403C 251.624,23.1056 248.406,24.431 244.803,24.431C 241.197,24.431 237.982,23.1056 237.648,19.403C 237.589,18.724 237.579,18.4414 237.577,18.0601L 237.579,9.49963C 237.579,9.13318 237.623,8.49426 237.666,8.16785C 238.117,4.35022 241.197,3.13855 244.805,3.13855C 248.411,3.13855 251.575,4.34021 251.95,8.16785C 252.009,8.80176 251.988,9.49963 251.99,9.49963L 251.99,10.176L 246.864,10.176L 246.864,9.03308C 246.864,9.03308 246.859,8.55054 246.797,8.26782C 246.705,7.82019 246.32,6.78613 244.763,6.78613C 243.287,6.78613 242.85,7.76526 242.737,8.26782C 242.678,8.52551 242.655,8.88806 242.655,9.2207L 242.655,18.5265C 242.652,18.7853 242.665,19.0704 242.701,19.3018C 242.799,19.8444 243.311,20.7722 244.783,20.7722 Z M 103.459,38.8491L 112.336,38.8491L 112.336,86.4968L 103.459,86.4968L 103.459,38.8491 Z M 118.269,48.3123L 127.017,48.3123L 127.017,53.5291C 128.277,51.9348 129.876,50.6569 131.815,49.6927C 133.749,48.7286 135.958,48.246 138.439,48.246C 143.183,48.246 146.896,49.6565 149.566,52.4774C 152.245,55.2947 153.583,59.2235 153.583,64.264L 153.583,86.4967L 144.644,86.4967L 144.644,65.2606C 144.644,62.3684 143.921,60.0839 142.487,58.402C 141.052,56.7239 138.895,55.8849 136.027,55.8849C 133.498,55.8849 131.379,56.7552 129.657,58.4983C 127.942,60.2439 127.082,62.7498 127.082,66.0259L 127.082,86.4967L 118.269,86.4967L 118.269,48.3123 Z M 155.67,48.3123L 162.199,48.3123L 162.199,42.504L 171.074,36.4331L 171.074,48.3123L 178.841,48.3123L 178.841,56.2113L 171.074,56.2113L 171.074,70.5062C 171.074,72.1605 171.16,73.4985 171.334,74.5188C 171.511,75.5417 171.872,76.3245 172.413,76.8696C 172.955,77.4136 173.741,77.7725 174.762,77.9475C 175.787,78.1201 177.146,78.2076 178.841,78.2076L 178.841,86.4967L 177.603,86.4967C 174.644,86.4967 172.175,86.2366 170.193,85.714C 168.212,85.1901 166.639,84.311 165.46,83.0706C 164.287,81.8301 163.448,80.197 162.948,78.1764C 162.449,76.1519 162.199,73.6161 162.199,70.5687L 162.199,56.2113L 155.67,56.2113L 155.67,48.3123 Z M 200.386,56.0145C 197.736,56.0145 195.435,56.6023 193.502,57.7726C 191.562,58.9468 190.203,60.4924 189.421,62.4105L 211.094,62.4105C 210.441,60.3148 209.177,58.7242 207.308,57.6401C 205.437,56.5573 203.126,56.0145 200.386,56.0145 Z M 200.715,86.5638C 197.713,86.5638 194.968,86.0699 192.488,85.0846C 190.012,84.098 187.887,82.7463 186.124,81.0256C 184.365,79.3076 182.995,77.2832 182.013,74.9536C 181.035,72.6278 180.546,70.142 180.546,67.4998C 180.546,64.8164 181.056,62.298 182.08,59.9485C 183.102,57.6001 184.503,55.5657 186.289,53.8475C 188.072,52.127 190.172,50.7639 192.589,49.7573C 195.005,48.7509 197.602,48.2468 200.386,48.2468C 203.217,48.2468 205.836,48.7058 208.253,49.6248C 210.67,50.5414 212.747,51.8256 214.489,53.4786C 216.226,55.1305 217.586,57.08 218.569,59.3232C 219.546,61.5677 220.035,64.0148 220.035,66.6682L 220.035,69.7881L 188.965,69.7881C 189.575,72.4865 190.898,74.6622 192.944,76.3141C 194.99,77.9684 197.582,78.7949 200.715,78.7949C 203.196,78.7949 205.347,78.1859 207.175,76.9668C 209.002,75.7489 210.372,74.1183 211.287,72.0726L 218.532,76.2504C 216.878,79.3389 214.564,81.8311 211.583,83.7241C 208.598,85.6149 204.981,86.5638 200.715,86.5638 Z M 223.949,48.3123L 232.699,48.3123L 232.699,53.9917C 234.483,50.2067 237.744,48.3123 242.488,48.3123C 243.879,48.3123 245.133,48.4673 246.243,48.7699C 247.349,49.075 248.341,49.4652 249.213,49.9429L 245.882,58.2982C 245.229,57.8656 244.501,57.5054 243.694,57.2228C 242.891,56.939 241.855,56.799 240.596,56.799C 238.027,56.799 236.081,57.5267 234.754,58.9847C 233.425,60.4427 232.762,62.8248 232.762,66.131L 232.762,86.4967L 223.949,86.4967L 223.949,48.3123 Z M 252.082,48.3123L 260.83,48.3123L 260.83,53.5291C 262.089,51.9348 263.687,50.6569 265.626,49.6927C 267.559,48.7286 269.77,48.246 272.251,48.246C 276.994,48.246 280.708,49.6565 283.379,52.4774C 286.056,55.2947 287.394,59.2235 287.394,64.264L 287.394,86.4967L 278.455,86.4967L 278.455,65.2606C 278.455,62.3684 277.733,60.0839 276.298,58.402C 274.865,56.7239 272.708,55.8849 269.839,55.8849C 267.311,55.8849 265.19,56.7552 263.469,58.4983C 261.754,60.2439 260.893,62.7498 260.893,66.0259L 260.893,86.4967L 252.082,86.4967L 252.082,48.3123 Z M 311.085,56.0145C 308.436,56.0145 306.135,56.6023 304.202,57.7726C 302.262,58.9468 300.902,60.4924 300.121,62.4105L 321.794,62.4105C 321.141,60.3148 319.877,58.7242 318.006,57.6401C 316.137,56.5573 313.826,56.0145 311.085,56.0145 Z M 311.415,86.5638C 308.413,86.5638 305.667,86.0699 303.187,85.0846C 300.712,84.098 298.587,82.7463 296.824,81.0256C 295.065,79.3076 293.694,77.2832 292.713,74.9536C 291.734,72.6278 291.246,70.142 291.246,67.4998C 291.246,64.8164 291.756,62.298 292.78,59.9485C 293.8,57.6001 295.203,55.5657 296.988,53.8475C 298.772,52.127 300.87,50.7639 303.289,49.7573C 305.705,48.7509 308.302,48.2468 311.085,48.2468C 313.917,48.2468 316.535,48.7058 318.953,49.6248C 321.37,50.5414 323.447,51.8256 325.189,53.4786C 326.926,55.1305 328.286,57.08 329.268,59.3232C 330.246,61.5677 330.735,64.0148 330.735,66.6682L 330.735,69.7881L 299.665,69.7881C 300.275,72.4865 301.598,74.6622 303.644,76.3141C 305.69,77.9684 308.282,78.7949 311.415,78.7949C 313.895,78.7949 316.047,78.1859 317.875,76.9668C 319.702,75.7489 321.071,74.1183 321.985,72.0726L 329.232,76.2504C 327.578,79.3389 325.263,81.8311 322.283,83.7241C 319.297,85.6149 315.681,86.5638 311.415,86.5638 Z M 331.643,48.3123L 338.171,48.3123L 338.171,42.504L 347.047,36.4331L 347.047,48.3123L 354.812,48.3123L 354.812,56.2113L 347.047,56.2113L 347.047,70.5062C 347.047,72.1605 347.132,73.4985 347.307,74.5188C 347.482,75.5417 347.843,76.3245 348.386,76.8696C 348.928,77.4136 349.713,77.7725 350.734,77.9475C 351.759,78.1201 353.119,78.2076 354.812,78.2076L 354.812,86.4967L 353.575,86.4967C 350.617,86.4967 348.146,86.2366 346.165,85.714C 344.183,85.1901 342.61,84.311 341.432,83.0706C 340.258,81.8301 339.419,80.197 338.919,78.1764C 338.42,76.1519 338.171,73.6161 338.171,70.5687L 338.171,56.2113L 331.643,56.2113L 331.643,48.3123 Z "/>
	<g>
		<path fill="#7882FF" fill-opacity="1" stroke-width="0.2" stroke-linejoin="round" d="M 34.5876,0L 55.0174,0C 74.1196,0 89.605,15.4854 89.605,34.5875L 89.605,55.0173C 89.605,74.1196 74.1196,89.605 55.0174,89.605L 34.5876,89.605C 15.4854,89.605 0,74.1196 0,55.0173L 0,34.5875C 0,15.4854 15.4854,0 34.5876,0 Z "/>
		<g>
			<path fill="#4D5CC1" fill-opacity="1" stroke-width="0.2" stroke-linejoin="round" d="M 68.608,44.8025C 68.608,43.8219 68.5496,42.855 68.436,41.905C 68.1781,41.3804 67.8849,40.8522 67.5568,40.3229C 73.2874,45.4089 76.0926,50.8951 74.4408,55.2041C 72.9689,59.0438 68.2402,61.2131 61.8064,61.6063C 55.5253,61.9901 47.6192,60.6813 39.5322,57.5812C 31.4657,54.489 24.7244,50.1919 20.3087,45.7201C 15.7628,41.1166 13.6818,36.328 15.1573,32.4788C 16.7258,28.3872 21.9924,26.1924 29.0795,26.0222L 29.2571,26.0184C 26.1422,28.5409 23.6672,31.8225 22.1136,35.5818C 23.5066,39.8383 29.5555,44.819 41.2848,49.7623C 50.8816,53.8069 62.097,55.7939 67.1047,52.6444L 67.3651,52.4722C 68.1713,50.0624 68.608,47.4835 68.608,44.8025 Z "/>
			<path fill="#FFFFFF" fill-opacity="1" stroke-width="0.2" stroke-linejoin="round" d="M 68.436,41.905C 68.5496,42.855 68.608,43.8219 68.608,44.8025C 68.608,47.4835 68.1713,50.0624 67.3651,52.4722C 62.495,55.8638 51.0516,53.8785 41.2848,49.7623C 29.5555,44.819 23.5066,39.8383 22.1136,35.5819C 23.6672,31.8225 26.1422,28.5409 29.2572,26.0184L 29.3787,25.9207C 33.5103,22.6185 38.7495,20.6443 44.4498,20.6443C 56.8114,20.6443 67.0045,29.9288 68.436,41.905 Z M 44.4497,68.9607C 31.4148,68.9607 20.7911,58.6371 20.3087,45.7201C 24.7243,50.1919 31.4657,54.489 39.5322,57.5812C 47.6192,60.6813 55.5253,61.9901 61.8064,61.6063C 57.4147,66.1415 51.2614,68.9607 44.4497,68.9607 Z "/>
		</g>
	</g>
</svg>

<svg xmlns="http://www.w3.org/2000/svg" viewBox="0 0 354.81 89.61"><path fill="#FFF" fill-rule="evenodd" d="M227.504 19.66l-.276-15.97h5.039v20.14h-7.245l-5.028-16.526h-.113l.282 16.526h-5V3.69h7.551l4.68 15.97h.11zm-91.56-14.091l-2.785 18.47h-5.498l3.77-20.347h9.057l3.749 20.347h-5.464l-2.715-18.47h-.114zm23.719 13.68l2.515-15.558h8.295l.452 20.347h-5.093L165.7 5.74l-.11.005-3.399 18.293h-5.159L153.63 5.74h-.114l-.129 18.298H148.3l.451-20.347h8.297l2.504 15.558h.111zm-40.566-.955c.2.491.134 1.125.04 1.51-.166.663-.624 1.356-1.98 1.356-1.271 0-2.047-.728-2.047-1.836l-.004-1.976h-5.457v1.575c0 4.537 3.573 5.902 7.393 5.902 3.687 0 6.709-1.25 7.196-4.644.249-1.76.065-2.914-.02-3.344-.863-4.263-8.583-5.524-9.16-7.914a2.582 2.582 0 0 1-.023-1.063c.147-.654.589-1.366 1.86-1.366 1.194 0 1.891.735 1.891 1.841v1.256h5.079V8.168c0-4.434-3.981-5.127-6.862-5.127-3.618 0-6.57 1.2-7.114 4.52-.146.897-.167 1.711.051 2.739.881 4.157 8.109 5.363 9.157 7.994zm66.157-.04c.19.487.133 1.112.039 1.495-.164.67-.621 1.34-1.964 1.34-1.263 0-2.025-.713-2.025-1.815l-.002-1.957h-5.405l-.003 1.556c0 4.496 3.538 5.842 7.326 5.842 3.644 0 6.64-1.232 7.117-4.595.248-1.74.065-2.882-.02-3.313-.853-4.216-8.498-5.468-9.062-7.833a2.559 2.559 0 0 1-.026-1.045c.145-.65.58-1.357 1.841-1.357 1.181 0 1.872.728 1.872 1.816v1.246h5.028V8.23c0-4.389-3.944-5.073-6.79-5.073-3.584 0-6.51 1.172-7.044 4.468-.149.89-.171 1.697.045 2.712.875 4.12 8.033 5.315 9.073 7.917zm17.078 2.726c1.413 0 1.852-.96 1.953-1.467.044-.22.051-.515.049-.778V3.688h5.159V18.27c.004.377-.035 1.143-.056 1.344-.355 3.794-3.363 5.02-7.105 5.02-3.74 0-6.746-1.226-7.098-5.02a19.138 19.138 0 0 1-.048-1.344V3.688h5.144v15.047c-.004.263.006.558.049.778.102.506.541 1.467 1.953 1.467zm42.451-.208c1.471 0 1.986-.928 2.081-1.47.038-.232.053-.517.046-.776v-2.95h-2.083v-2.975h7.2v5.46c-.003.38-.008.663-.064 1.342-.339 3.703-3.557 5.028-7.16 5.028-3.606 0-6.821-1.325-7.155-5.028a14.228 14.228 0 0 1-.071-1.343l.002-8.56c0-.367.044-1.006.087-1.332.451-3.818 3.531-5.03 7.139-5.03 3.606 0 6.77 1.202 7.145 5.03.059.634.038 1.332.04 1.332v.676h-5.126V9.033s-.005-.482-.067-.765c-.092-.448-.477-1.482-2.034-1.482-1.476 0-1.913.98-2.026 1.482-.059.258-.082.62-.082.953v9.305c-.003.26.01.544.046.776.098.542.61 1.47 2.082 1.47zM103.459 38.85h8.877v47.648h-8.877V38.849zm14.81 9.463h8.748v5.217c1.26-1.594 2.859-2.872 4.798-3.836 1.934-.964 4.143-1.447 6.624-1.447 4.744 0 8.457 1.41 11.127 4.231 2.679 2.818 4.017 6.747 4.017 11.787v22.233h-8.939V65.26c0-2.893-.723-5.177-2.157-6.859-1.435-1.678-3.592-2.517-6.46-2.517-2.529 0-4.648.87-6.37 2.613-1.715 1.746-2.575 4.252-2.575 7.528v20.47h-8.813V48.313zm37.401 0h6.529v-5.808l8.875-6.07v11.878h7.767v7.9h-7.767v14.294c0 1.654.086 2.993.26 4.013.177 1.023.538 1.805 1.079 2.35.542.545 1.328.903 2.349 1.079 1.025.172 2.384.26 4.079.26v8.289h-1.238c-2.959 0-5.428-.26-7.41-.783-1.981-.524-3.554-1.403-4.733-2.643-1.173-1.24-2.012-2.874-2.512-4.895-.499-2.024-.749-4.56-.749-7.607V56.21h-6.529v-7.899zm44.716 7.703c-2.65 0-4.951.587-6.884 1.758-1.94 1.174-3.299 2.72-4.081 4.637h21.673c-.653-2.095-1.917-3.686-3.786-4.77-1.871-1.083-4.182-1.626-6.922-1.626zm.329 30.549c-3.002 0-5.747-.494-8.227-1.48-2.476-.986-4.601-2.338-6.364-4.058-1.759-1.718-3.129-3.743-4.111-6.072-.978-2.326-1.467-4.812-1.467-7.454 0-2.684.51-5.202 1.534-7.551 1.022-2.349 2.423-4.383 4.209-6.102 1.783-1.72 3.883-3.083 6.3-4.09 2.416-1.006 5.013-1.51 7.797-1.51 2.831 0 5.45.459 7.867 1.378 2.417.916 4.494 2.2 6.236 3.854a17.88 17.88 0 0 1 4.08 5.844c.977 2.245 1.466 4.692 1.466 7.345v3.12h-31.07c.61 2.699 1.933 4.874 3.979 6.526 2.046 1.654 4.638 2.48 7.771 2.48 2.481 0 4.632-.608 6.46-1.827 1.827-1.218 3.197-2.849 4.112-4.894l7.245 4.177c-1.654 3.089-3.968 5.581-6.949 7.474-2.985 1.89-6.602 2.84-10.868 2.84zm23.234-38.252h8.75v5.68c1.784-3.785 5.045-5.68 9.789-5.68 1.391 0 2.645.155 3.755.458 1.106.305 2.098.695 2.97 1.173l-3.331 8.355a9.815 9.815 0 0 0-2.188-1.075c-.803-.284-1.839-.424-3.098-.424-2.569 0-4.515.728-5.842 2.186-1.329 1.458-1.992 3.84-1.992 7.146v20.366h-8.813V48.312zm28.133 0h8.748v5.217c1.259-1.594 2.857-2.872 4.796-3.836 1.933-.964 4.144-1.447 6.625-1.447 4.743 0 8.457 1.41 11.128 4.231 2.677 2.818 4.015 6.747 4.015 11.787v22.233h-8.939V65.26c0-2.893-.722-5.177-2.157-6.859-1.433-1.678-3.59-2.517-6.459-2.517-2.528 0-4.649.87-6.37 2.613-1.715 1.746-2.576 4.252-2.576 7.528v20.47h-8.811V48.313zm59.003 7.703c-2.649 0-4.95.587-6.883 1.758-1.94 1.174-3.3 2.72-4.081 4.637h21.673c-.653-2.095-1.917-3.686-3.788-4.77-1.869-1.083-4.18-1.626-6.921-1.626zm.33 30.549c-3.002 0-5.748-.494-8.228-1.48-2.475-.986-4.6-2.338-6.363-4.058-1.759-1.718-3.13-3.743-4.111-6.072-.979-2.326-1.467-4.812-1.467-7.454 0-2.684.51-5.202 1.534-7.551 1.02-2.349 2.423-4.383 4.208-6.102 1.784-1.72 3.882-3.083 6.301-4.09 2.416-1.006 5.013-1.51 7.796-1.51 2.832 0 5.45.459 7.868 1.378 2.417.916 4.494 2.2 6.236 3.854a17.862 17.862 0 0 1 4.079 5.844c.978 2.245 1.467 4.692 1.467 7.345v3.12h-31.07c.61 2.699 1.933 4.874 3.979 6.526 2.046 1.654 4.638 2.48 7.771 2.48 2.48 0 4.632-.608 6.46-1.827 1.827-1.218 3.196-2.849 4.11-4.894l7.247 4.177c-1.654 3.089-3.969 5.581-6.949 7.474-2.986 1.89-6.602 2.84-10.868 2.84zm20.228-38.252h6.528v-5.808l8.876-6.07v11.878h7.765v7.9h-7.765v14.294c0 1.654.085 2.993.26 4.013.175 1.023.536 1.805 1.079 2.35.542.545 1.327.903 2.348 1.079 1.025.172 2.385.26 4.078.26v8.289h-1.237c-2.958 0-5.429-.26-7.41-.783-1.982-.524-3.555-1.403-4.733-2.643-1.174-1.24-2.013-2.874-2.513-4.895-.499-2.024-.748-4.56-.748-7.607V56.21h-6.528v-7.899z"/><path fill="#7882FF" d="M34.588 0h20.43C74.12 0 89.604 15.485 89.604 34.587v20.43c0 19.103-15.485 34.588-34.588 34.588h-20.43C15.486 89.605 0 74.12 0 55.017v-20.43C0 15.485 15.485 0 34.588 0z"/><path fill="#4D5CC1" d="M68.608 44.803c0-.981-.058-1.948-.172-2.898a18.49 18.49 0 0 0-.88-1.582c5.731 5.086 8.537 10.572 6.885 14.881-1.472 3.84-6.2 6.01-12.635 6.402-6.28.384-14.187-.925-22.274-4.025-8.066-3.092-14.808-7.39-19.223-11.86-4.546-4.604-6.627-9.393-5.152-13.242 1.569-4.092 6.835-6.287 13.922-6.457l.178-.004a24.228 24.228 0 0 0-7.143 9.564c1.393 4.256 7.441 9.237 19.17 14.18 9.598 4.045 20.813 6.032 25.82 2.882l.261-.172a24.132 24.132 0 0 0 1.243-7.67z"/><path fill="#FFF" d="M68.436 41.905c.114.95.172 1.917.172 2.898 0 2.68-.437 5.26-1.243 7.67-4.87 3.39-16.313 1.406-26.08-2.71-11.73-4.944-17.778-9.925-19.171-14.181a24.227 24.227 0 0 1 7.143-9.564l.122-.097a24.056 24.056 0 0 1 15.07-5.277c12.362 0 22.555 9.285 23.987 21.261zM44.45 68.961c-13.035 0-23.659-10.324-24.141-23.24 4.415 4.47 11.157 8.768 19.223 11.86 8.087 3.1 15.993 4.41 22.274 4.025a24.087 24.087 0 0 1-17.356 7.355z"/></svg>
